X:245
T: Fermanagh
M: 4/4
L: 1/8
R: highland
K: Dmaj
dB|:A2 FA AddB|A2 FD EFGB|(3ABA FA (3AAA FA|1 BGEG FDdB:|2 BGEG FDD2||
|dAFA (3fff fe|dAFA Beec|dAFA (3fff fe|GFEF GABc|
|dAFA (3fff fe|dAFA Beec|d2 cd (3Bcd A2|(3Bcd ec d2 dB||
